public/images/partner3.svg

<svg width="157" height="157" viewBox="0 0 157 157" fill="none" xmlns="http://www.w3.org/2000/svg">
<circle cx="78.5" cy="78.5" r="78.5" fill="url(#paint0_linear_110_1428)"/>
<path fill-rule="evenodd" clip-rule="evenodd" d="M119.161 67.9788L87.0242 123.641C85.3363 126.565 81.575 127.572 78.6514 125.884L41.0619 104.182C38.1383 102.494 37.1305 98.7331 38.8184 95.8093L70.9551 40.1472C71.8217 38.646 73.1188 37.6724 74.8022 37.2593L98.9713 31.3271C101.852 30.6202 104.715 31.0611 107.432 32.63C110.15 34.1988 111.963 36.4585 112.791 39.3062L119.738 63.2034C120.222 64.8675 120.027 66.4781 119.161 67.9788ZM99.1102 47.0443C95.5412 44.9837 90.9777 46.2066 88.9172 49.7755C86.8566 53.3445 88.0795 57.9081 91.6484 59.9687C95.2174 62.0292 99.7811 60.8064 101.842 57.2374C103.902 53.6683 102.679 49.1048 99.1102 47.0443ZM73.9617 70.631C72.207 69.6181 70.2154 69.4101 68.4141 69.8927C66.6127 70.3753 64.9918 71.5513 63.9787 73.3058C62.9656 75.0605 62.7576 77.0523 63.2404 78.8534C63.725 80.6624 64.8996 82.2863 66.6492 83.2964C68.3988 84.3066 70.3924 84.5118 72.2012 84.0271C74.0025 83.5445 75.6232 82.3685 76.6365 80.6138L76.6441 80.6183C77.6543 78.8689 77.8596 76.8751 77.3748 75.0663C76.8922 73.265 75.7162 71.6443 73.9617 70.631ZM82.717 95.4097C80.9676 94.3995 78.9738 94.1945 77.165 94.679C75.3637 95.1616 73.743 96.3376 72.7297 98.0923C71.7168 99.847 71.5086 101.839 71.9914 103.64C72.476 105.449 73.6506 107.073 75.4002 108.083C77.1498 109.093 79.1434 109.298 80.9522 108.813C82.7535 108.331 84.3744 107.155 85.3873 105.4L85.3951 105.404L85.3875 105.4C86.4004 103.645 86.6084 101.654 86.1258 99.8525C85.641 98.0439 84.4664 96.4199 82.717 95.4097ZM80.4602 99.3189C79.7895 98.9318 79.0256 98.8529 78.333 99.0386C77.6328 99.2263 77.0076 99.6751 76.6234 100.34C76.2393 101.006 76.1633 101.772 76.3508 102.472C76.5363 103.165 76.9865 103.787 77.657 104.174C78.3275 104.561 79.0914 104.64 79.784 104.454C80.4842 104.266 81.1094 103.818 81.4936 103.152L81.4859 103.148L81.4936 103.152C81.8777 102.486 81.9537 101.721 81.7662 101.02C81.5807 100.328 81.1307 99.706 80.4602 99.3189ZM87.4522 80.4966L60.0398 93.82C58.9209 94.3657 58.4561 95.7156 59.0018 96.8345C59.5475 97.9534 60.8973 98.4183 62.0162 97.8724L89.4285 84.549C90.5475 84.0032 91.0123 82.6534 90.4664 81.5345C89.9209 80.4156 88.5711 79.9509 87.4522 80.4966ZM73.0154 76.2345C72.8277 75.5343 72.3789 74.9091 71.7137 74.5249C71.0484 74.1407 70.2824 74.0648 69.5822 74.2525C68.882 74.44 68.2568 74.889 67.8727 75.5542C67.4885 76.2195 67.4125 76.9857 67.6002 77.6857C67.7857 78.3782 68.2359 79.0005 68.9065 79.3876C69.577 79.7747 70.3408 79.8534 71.0334 79.6679C71.7336 79.4804 72.3588 79.0314 72.743 78.3661L72.7354 78.3616C73.1223 77.6909 73.201 76.9271 73.0154 76.2345Z" fill="white"/>
<defs>
<linearGradient id="paint0_linear_110_1428" x1="104" y1="4.64892e-06" x2="6.37371" y2="183.217" gradientUnits="userSpaceOnUse">
<stop stop-color="#00C0FF"/>
<stop offset="0.606474" stop-color="#0165FC"/>
</linearGradient>
</defs>
</svg>

<svg xmlns="http://www.w3.org/2000/svg" width="157" height="157" fill="none"><circle cx="78.5" cy="78.5" r="78.5" fill="url(#a)"/><path fill="#fff" fill-rule="evenodd" d="M119.161 67.979 87.024 123.64c-1.688 2.924-5.449 3.931-8.373 2.243l-37.59-21.702c-2.923-1.688-3.93-5.449-2.243-8.373l32.137-55.662c.867-1.501 2.164-2.475 3.847-2.888l24.17-5.932c2.88-.707 5.743-.266 8.46 1.303s4.531 3.828 5.359 6.676l6.947 23.897c.484 1.665.289 3.275-.577 4.776m-20.05-20.935a7.462 7.462 0 1 0-7.463 12.924 7.462 7.462 0 0 0 7.462-12.924M73.96 70.631a7.29 7.29 0 0 0-9.982 2.675 7.3 7.3 0 0 0-.739 5.547 7.3 7.3 0 0 0 3.41 4.443 7.3 7.3 0 0 0 5.551.731 7.3 7.3 0 0 0 4.436-3.413l.007.004a7.3 7.3 0 0 0 .73-5.552 7.3 7.3 0 0 0-3.412-4.435m8.756 24.779a7.3 7.3 0 0 0-5.552-.731 7.3 7.3 0 0 0-4.435 3.413 7.3 7.3 0 0 0-.739 5.548 7.3 7.3 0 0 0 3.41 4.443 7.3 7.3 0 0 0 5.551.73 7.29 7.29 0 0 0 4.435-3.413l.008.004-.007-.004a7.3 7.3 0 0 0 .738-5.547 7.3 7.3 0 0 0-3.409-4.443m-2.257 3.909a2.8 2.8 0 0 0-2.127-.28c-.7.187-1.325.636-1.71 1.301a2.8 2.8 0 0 0-.272 2.132 2.8 2.8 0 0 0 1.306 1.702c.67.387 1.434.466 2.127.28a2.8 2.8 0 0 0 1.71-1.302l-.008-.004.008.004c.384-.666.46-1.431.272-2.132a2.8 2.8 0 0 0-1.306-1.701m6.992-18.822L60.04 93.82a2.255 2.255 0 0 0 1.976 4.052L89.43 84.55a2.254 2.254 0 0 0-1.977-4.052m-14.437-4.263a2.8 2.8 0 0 0-1.301-1.71 2.8 2.8 0 0 0-2.132-.272 2.8 2.8 0 0 0-1.71 1.302 2.8 2.8 0 0 0-.272 2.132 2.8 2.8 0 0 0 1.306 1.702c.671.387 1.435.465 2.127.28a2.8 2.8 0 0 0 1.71-1.302l-.008-.004c.387-.671.466-1.435.28-2.127" clip-rule="evenodd"/><defs><linearGradient id="a" x1="104" x2="6.374" y1="0" y2="183.217" gradientUnits="userSpaceOnUse"><stop stop-color="#00C0FF"/><stop offset=".606" stop-color="#0165FC"/></linearGradient></defs></svg>
